X:115
T:Merry Weaver, The
M:6/8
L:1/8
B:Thompson's Compleat Collection of 200 Favourite Country Dances, vol. 2 (London, 1765)
Z:Transcribed and edited by Flynn Titford-Mock, 2007
Z:abc's:AK/Fiddler's Companion
K:G
D | GAB G2g | gfg B2g | gfg d2g | fag fed | [DA]>[GB][GB] [G2B2] [G/B/][G/B/] | [DA]>[GB][GB] [G2B2] [G/B/][G/B/] |
eag fdf | g3 G2 :: D | G2g G2g | G2g G2g | [DA]>[GB][GB] [G2B2] [G/B/][G/B/] | [DA]>[G/B/][G/B/] [G2B2] [G/B/][G/B/] |
D2d D2d | D2d D2d | fag fdf | g3 G2 :|

